static/assets/images/exchanges/vvs.svg

<svg width="287" height="256" viewBox="0 0 287 256" fill="none" xmlns="http://www.w3.org/2000/svg">
<path d="M143.523 256C132.915 256.026 122.406 253.947 112.605 249.882C102.804 245.818 93.9054 239.849 86.4228 232.32L23.6181 169.501C-7.87271 137.964 -7.87271 86.6561 23.6181 55.1386L54.991 23.7294C62.4778 16.1864 71.3848 10.2052 81.1964 6.13207C91.0079 2.05892 101.529 -0.0252485 112.151 0.000230822H174.896C196.483 0.000230822 216.773 8.41867 232.016 23.6703L263.389 55.0795C294.87 86.6068 294.87 137.915 263.389 169.433L200.644 232.31C193.159 239.843 184.258 245.815 174.453 249.882C164.648 253.948 154.136 256.027 143.523 256ZM112.151 25.3836C97.3394 25.3836 83.4331 31.1436 72.9984 41.6592L41.5665 73.0586C19.9891 94.661 19.9891 129.861 41.5665 151.513L104.312 214.331C109.444 219.497 115.547 223.594 122.268 226.388C128.99 229.181 136.197 230.615 143.474 230.607C158.285 230.607 172.192 224.847 182.626 214.341L245.382 151.513C266.959 129.91 266.959 94.7102 245.382 73.0586L214.009 41.6494C208.877 36.4831 202.775 32.3851 196.053 29.5916C189.332 26.7982 182.125 25.3647 174.847 25.3737H112.151V25.3836Z" fill="white"/>
<path d="M143.533 218.24C137.285 218.257 131.095 217.031 125.325 214.632C119.554 212.234 114.317 208.711 109.918 204.268L53.1223 147.466C44.219 138.524 39.2195 126.413 39.2195 113.787C39.2195 101.161 44.219 89.0503 53.1223 80.1083L81.525 51.7318C85.9298 47.3011 91.1691 43.7898 96.9395 41.4016C102.71 39.0134 108.896 37.7957 115.14 37.8192H171.867C184.554 37.8192 196.533 42.7718 205.482 51.7908L233.875 80.2166C242.778 89.1586 247.778 101.27 247.778 113.895C247.778 126.521 242.778 138.632 233.875 147.574L177.148 204.268C172.75 208.713 167.514 212.237 161.743 214.638C155.972 217.038 149.782 218.256 143.533 218.24ZM115.14 63.2124C109.22 63.2124 103.634 65.5065 99.4734 69.7108L71.0805 98.1465C66.9354 102.32 64.6087 107.966 64.6087 113.851C64.6087 119.736 66.9354 125.382 71.0805 129.556L127.817 186.358C136.177 194.727 150.83 194.727 159.19 186.358L215.927 129.556C220.072 125.382 222.399 119.736 222.399 113.851C222.399 107.966 220.072 102.32 215.927 98.1465L187.534 69.7108C185.484 67.6403 183.043 65.9986 180.353 64.8812C177.664 63.7639 174.779 63.1933 171.867 63.2025L115.14 63.2124Z" fill="white"/>
<path d="M143.523 181.011L78.4272 115.84L119.291 74.9883H167.766L208.629 115.85L143.523 181.011Z" fill="white"/>
</svg>

<svg xmlns="http://www.w3.org/2000/svg" fill="none" viewBox="0 0 287 256"><path fill="#fff" d="M143.486 256a80.2 80.2 0 0 1-30.91-6.118 80.2 80.2 0 0 1-26.175-17.562l-62.789-62.819c-31.483-31.537-31.483-82.845 0-114.362l31.365-31.41A80.3 80.3 0 0 1 81.176 6.132 80.2 80.2 0 0 1 112.122 0h62.729c21.582 0 41.866 8.419 57.106 23.67l31.364 31.41c31.473 31.527 31.473 82.835 0 114.353l-62.729 62.877a80.3 80.3 0 0 1-26.184 17.572A80.2 80.2 0 0 1 143.486 256M112.122 25.384c-14.808 0-28.71 5.76-39.142 16.275l-31.424 31.4c-21.572 21.602-21.572 56.802 0 78.454l62.729 62.818a55.1 55.1 0 0 0 17.952 12.057 55.1 55.1 0 0 0 21.2 4.219c14.808 0 28.71-5.76 39.142-16.266l62.74-62.828c21.572-21.603 21.572-56.803 0-78.454l-31.365-31.41a55.1 55.1 0 0 0-17.951-12.057 55.1 55.1 0 0 0-21.201-4.218h-62.68z"/><path fill="#fff" d="M143.496 218.24a47.1 47.1 0 0 1-33.606-13.972l-56.781-56.802a47.74 47.74 0 0 1-13.9-33.679 47.74 47.74 0 0 1 13.9-33.679l28.395-28.376a47.2 47.2 0 0 1 15.41-10.33 47.1 47.1 0 0 1 18.197-3.583h56.712c12.683 0 24.659 4.953 33.606 13.972l28.386 28.426a47.74 47.74 0 0 1 13.899 33.678 47.74 47.74 0 0 1-13.899 33.679l-56.712 56.694a47.1 47.1 0 0 1-15.402 10.37 47.1 47.1 0 0 1-18.205 3.602M115.111 63.212c-5.919 0-11.504 2.294-15.663 6.499L71.062 98.147a22.29 22.29 0 0 0 0 31.41l56.722 56.801c8.358 8.369 23.008 8.369 31.365 0l56.722-56.802a22.29 22.29 0 0 0 0-31.41l-28.386-28.435a21.95 21.95 0 0 0-15.662-6.508z"/><path fill="#fff" d="M143.486 181.011 78.407 115.84l40.853-40.852h48.463l40.853 40.862z"/></svg>
